icons/svg/google-drive.svg

﻿<?xml version="1.0" encoding="utf-8"?>
<!DOCTYPE svg PUBLIC "-//W3C//DTD SVG 1.1//EN" "http://www.w3.org/Graphics/SVG/1.1/DTD/svg11.dtd">
<svg xmlns="http://www.w3.org/2000/svg" xmlns:xlink="http://www.w3.org/1999/xlink" version="1.1" baseProfile="full" width="24" height="24" viewBox="0 0 24.00 24.00" enable-background="new 0 0 24.00 24.00" xml:space="preserve">
	<path fill="#000000" fill-opacity="1" stroke-width="0.2" stroke-linejoin="round" d="M 7.7108,3.51858L 1.1508,14.9976L 4.5758,20.9906L 11.1348,9.52456M 9.7318,14.9976L 6.2998,20.9976L 19.4188,20.9976L 22.8478,14.9976M 22.2758,13.9976L 15.4188,1.99758L 8.5798,1.99758L 8.5748,2.00558L 15.4278,13.9976L 22.2758,13.9976 Z "/>
</svg>

<svg xmlns="http://www.w3.org/2000/svg" version="1.1" baseProfile="full" width="24" height="24" viewBox="0 0 24.00 24.00" xml:space="preserve"><path fill="#000" fill-opacity="1" stroke-width=".2" stroke-linejoin="round" d="M7.71 3.52L1.15 14.997l3.426 5.993 6.56-11.465M9.73 14.998l-3.432 6h13.12l3.428-6m-.572-1l-6.857-12H8.58l-.005.008 6.853 11.992h6.848z"/></svg>
